X:66
T:Cottager. RHu.067
T:Villagers,The,aka. RHu.067
S:R.Hughes MS,1823,Whitchurch,Shrops.
A:Whitchurch , Shropshire
N:2/4 version of “The Villagers” 6/8.
Z:Neil Brookes 2006
M:2/4
L:1/8
Q:1/4=110
K:G
D|BB cc|dB/G/ AF/D/|GG AA|Bd/B/ Ad|\
BB cc|dB/G/ AF/D/|GB/G/ Ec|B/A/G/F/ G::!
c|Bd de/d/|gd de/d/|ca Bg|f/e/d/c/ B/A/B/c/|\
dd de/d/|gd de/d/|Bg f/e/d/c/|B/A/G/F/ G:|

